assets/pics/category/Systems.svg

<?xml version="1.0" encoding="UTF-8" standalone="no"?>
<svg
   xmlns:dc="http://purl.org/dc/elements/1.1/"
   xmlns:cc="http://creativecommons.org/ns#"
   xmlns:rdf="http://www.w3.org/1999/02/22-rdf-syntax-ns#"
   xmlns:svg="http://www.w3.org/2000/svg"
   xmlns="http://www.w3.org/2000/svg"
   xmlns:sodipodi="http://sodipodi.sourceforge.net/DTD/sodipodi-0.dtd"
   xmlns:inkscape="http://www.inkscape.org/namespaces/inkscape"
   version="1.1"
   x="0px"
   y="0px"
   viewBox="0 0 150 150"
   enable-background="new 0 0 100 100"
   xml:space="preserve"
   id="svg3555"
   inkscape:version="0.91 r13725"
   sodipodi:docname="Systems.svg"
   width="150"
   height="150"><metadata
     id="metadata3593"><rdf:RDF><cc:Work
         rdf:about=""><dc:format>image/svg+xml</dc:format><dc:type
           rdf:resource="http://purl.org/dc/dcmitype/StillImage" /><dc:title></dc:title></cc:Work></rdf:RDF></metadata><defs
     id="defs3591"><filter
       inkscape:collect="always"
       style="color-interpolation-filters:sRGB"
       id="filter4893"
       x="-0.060000334"
       width="1.1200007"
       y="-0.059999667"
       height="1.1199993"><feGaussianBlur
         inkscape:collect="always"
         stdDeviation="2.2499875"
         id="feGaussianBlur4895" /></filter></defs><sodipodi:namedview
     pagecolor="#ffffff"
     bordercolor="#666666"
     borderopacity="1"
     objecttolerance="10"
     gridtolerance="10"
     guidetolerance="10"
     inkscape:pageopacity="0"
     inkscape:pageshadow="2"
     inkscape:window-width="1366"
     inkscape:window-height="713"
     id="namedview3589"
     showgrid="false"
     showborder="false"
     inkscape:zoom="1"
     inkscape:cx="-104.20515"
     inkscape:cy="1.5195665"
     inkscape:window-x="0"
     inkscape:window-y="27"
     inkscape:window-maximized="1"
     inkscape:current-layer="svg3555"
     showguides="true"
     inkscape:guide-bbox="true"
     fit-margin-top="0"
     fit-margin-left="0"
     fit-margin-right="0"
     fit-margin-bottom="0" /><g
     id="g5064"
     inkscape:export-xdpi="90"
     inkscape:export-ydpi="90"
     transform="matrix(1.25,0,0,1.25,11.358291,-48.858342)"><g
       style="fill:#00a99d;fill-opacity:1"
       id="g3567"
       transform="matrix(0.9999875,0,0,0.9999875,-464.98431,83.416412)"
       inkscape:export-xdpi="90"
       inkscape:export-ydpi="90" /><rect
       ry="0"
       rx="0"
       style="opacity:1;fill:#333333;fill-opacity:1;stroke:none;stroke-width:6.79094839;stroke-linecap:round;stroke-linejoin:round;stroke-miterlimit:4;stroke-dasharray:none;stroke-dashoffset:0;stroke-opacity:1"
       id="rect5453"
       width="120"
       height="120"
       x="-9.0866327"
       y="39.086674" /><g
       transform="matrix(0.90173223,0,0,0.90173223,1.3181016,13.422103)"
       id="g5042"><g
         id="g4869"
         transform="matrix(0.82514008,0,0,0.82514008,13.740923,53.76281)"
         style="fill:#ffffff;filter:url(#filter4893)"><path
           inkscape:connector-curvature="0"
           d="m 83.778,81.138 -3.973,0 0,-51.014 3.973,0 c 0,0 0,51.014 0,51.014 z"
           id="path4871"
           style="fill:#ffffff" /><path
           inkscape:connector-curvature="0"
           d="m 83.778,79.787 0,3.974 -53.319,0 0,-3.974 53.319,0 z"
           id="path4873"
           style="fill:#ffffff" /><path
           inkscape:connector-curvature="0"
           d="m 51.96,81.298 -3.973,0 0,-19.23 3.973,0 0,19.23 z"
           id="path4875"
           style="fill:#ffffff" /><path
           inkscape:connector-curvature="0"
           d="m 80.997,47.844 0,3.973 -18.435,0 0,-3.973 18.435,0 z"
           id="path4877"
           style="fill:#ffffff" /><path
           inkscape:connector-curvature="0"
           d="m 88.796,49.753 c 0,3.794 -3.075,6.869 -6.869,6.869 -3.794,0 -6.869,-3.075 -6.869,-6.869 0,-3.793 3.076,-6.868 6.869,-6.868 3.794,0 6.869,3.074 6.869,6.868 z"
           id="path4879"
           style="fill:#ffffff" /><path
           inkscape:connector-curvature="0"
           d="m 56.603,81.851 c 0,3.662 -2.968,6.63 -6.63,6.63 -3.662,0 -6.63,-2.968 -6.63,-6.63 0,-3.661 2.968,-6.63 6.63,-6.63 3.662,0 6.63,2.969 6.63,6.63 z"
           id="path4881"
           style="fill:#ffffff" /><path
           inkscape:connector-curvature="0"
           d="m 95.002,8.726 0,18.75 c 0,2.072 -1.679,3.75 -3.75,3.75 l -18.75,0 c -2.071,0 -3.75,-1.678 -3.75,-3.75 l 0,-18.75 c 0,-2.071 1.679,-3.75 3.75,-3.75 l 18.75,0 c 2.072,0 3.75,1.679 3.75,3.75 z"
           id="path4883"
           style="fill:#ffffff" /><path
           inkscape:connector-curvature="0"
           d="m 63.127,40.601 0,18.749 c 0,2.072 -1.679,3.75 -3.75,3.75 l -18.75,0 c -2.071,0 -3.75,-1.678 -3.75,-3.75 l 0,-18.749 c 0,-2.071 1.679,-3.75 3.75,-3.75 l 18.75,0 c 2.072,0 3.751,1.679 3.75,3.75 z"
           id="path4885"
           style="fill:#ffffff" /><path
           inkscape:connector-curvature="0"
           d="m 31.253,72.477 0,18.748 c 0,2.072 -1.679,3.751 -3.75,3.751 l -18.75,0 c -2.071,0 -3.75,-1.679 -3.75,-3.751 l 0,-18.749 c 0,-2.072 1.679,-3.75 3.75,-3.75 l 18.75,0 c 2.071,0 3.749,1.679 3.75,3.751 z"
           id="path4887"
           style="fill:#ffffff" /></g><g
         style="fill:#ececec"
         transform="matrix(0.82514008,0,0,0.82514008,13.740926,53.762808)"
         id="g5952"><path
           style="fill:#ececec"
           id="path5954"
           d="m 83.778,81.138 -3.973,0 0,-51.014 3.973,0 c 0,0 0,51.014 0,51.014 z"
           inkscape:connector-curvature="0" /><path
           style="fill:#ececec"
           id="path5956"
           d="m 83.778,79.787 0,3.974 -53.319,0 0,-3.974 53.319,0 z"
           inkscape:connector-curvature="0" /><path
           style="fill:#ececec"
           id="path5958"
           d="m 51.96,81.298 -3.973,0 0,-19.23 3.973,0 0,19.23 z"
           inkscape:connector-curvature="0" /><path
           style="fill:#ececec"
           id="path5960"
           d="m 80.997,47.844 0,3.973 -18.435,0 0,-3.973 18.435,0 z"
           inkscape:connector-curvature="0" /><path
           style="fill:#ececec"
           id="path5962"
           d="m 88.796,49.753 c 0,3.794 -3.075,6.869 -6.869,6.869 -3.794,0 -6.869,-3.075 -6.869,-6.869 0,-3.793 3.076,-6.868 6.869,-6.868 3.794,0 6.869,3.074 6.869,6.868 z"
           inkscape:connector-curvature="0" /><path
           style="fill:#ececec"
           id="path5964"
           d="m 56.603,81.851 c 0,3.662 -2.968,6.63 -6.63,6.63 -3.662,0 -6.63,-2.968 -6.63,-6.63 0,-3.661 2.968,-6.63 6.63,-6.63 3.662,0 6.63,2.969 6.63,6.63 z"
           inkscape:connector-curvature="0" /><path
           style="fill:#ececec"
           id="path5966"
           d="m 95.002,8.726 0,18.75 c 0,2.072 -1.679,3.75 -3.75,3.75 l -18.75,0 c -2.071,0 -3.75,-1.678 -3.75,-3.75 l 0,-18.75 c 0,-2.071 1.679,-3.75 3.75,-3.75 l 18.75,0 c 2.072,0 3.75,1.679 3.75,3.75 z"
           inkscape:connector-curvature="0" /><path
           style="fill:#ececec"
           id="path5968"
           d="m 63.127,40.601 0,18.749 c 0,2.072 -1.679,3.75 -3.75,3.75 l -18.75,0 c -2.071,0 -3.75,-1.678 -3.75,-3.75 l 0,-18.749 c 0,-2.071 1.679,-3.75 3.75,-3.75 l 18.75,0 c 2.072,0 3.751,1.679 3.75,3.75 z"
           inkscape:connector-curvature="0" /><path
           style="fill:#ececec"
           id="path5970"
           d="m 31.253,72.477 0,18.748 c 0,2.072 -1.679,3.751 -3.75,3.751 l -18.75,0 c -2.071,0 -3.75,-1.679 -3.75,-3.751 l 0,-18.749 c 0,-2.072 1.679,-3.75 3.75,-3.75 l 18.75,0 c 2.071,0 3.749,1.679 3.75,3.751 z"
           inkscape:connector-curvature="0" /></g></g></g></svg>

<?xml version="1.0" encoding="UTF-8" standalone="no"?>
<svg
   xmlns:dc="http://purl.org/dc/elements/1.1/"
   xmlns:cc="http://creativecommons.org/ns#"
   xmlns:rdf="http://www.w3.org/1999/02/22-rdf-syntax-ns#"
   xmlns:svg="http://www.w3.org/2000/svg"
   xmlns="http://www.w3.org/2000/svg"
   xmlns:sodipodi="http://sodipodi.sourceforge.net/DTD/sodipodi-0.dtd"
   xmlns:inkscape="http://www.inkscape.org/namespaces/inkscape"
   version="1.1"
   x="0px"
   y="0px"
   viewBox="0 0 150 150"
   enable-background="new 0 0 100 100"
   xml:space="preserve"
   id="svg3555"
   inkscape:version="0.92.1 r"
   sodipodi:docname="Systems.svg"
   width="160"
   height="160"><metadata
     id="metadata3593"><rdf:RDF><cc:Work
         rdf:about=""><dc:format>image/svg+xml</dc:format><dc:type
           rdf:resource="http://purl.org/dc/dcmitype/StillImage" /><dc:title /></cc:Work></rdf:RDF></metadata><defs
     id="defs3591"><filter
       inkscape:collect="always"
       style="color-interpolation-filters:sRGB"
       id="filter4893"
       x="-0.060000334"
       width="1.1200007"
       y="-0.059999667"
       height="1.1199993"><feGaussianBlur
         inkscape:collect="always"
         stdDeviation="2.2499875"
         id="feGaussianBlur4895" /></filter></defs><sodipodi:namedview
     pagecolor="#ffffff"
     bordercolor="#666666"
     borderopacity="1"
     objecttolerance="10"
     gridtolerance="10"
     guidetolerance="10"
     inkscape:pageopacity="0"
     inkscape:pageshadow="2"
     inkscape:window-width="1366"
     inkscape:window-height="708"
     id="namedview3589"
     showgrid="false"
     showborder="false"
     inkscape:zoom="1"
     inkscape:cx="15.79485"
     inkscape:cy="1.5195665"
     inkscape:window-x="0"
     inkscape:window-y="23"
     inkscape:window-maximized="1"
     inkscape:current-layer="svg3555"
     showguides="true"
     inkscape:guide-bbox="true"
     fit-margin-top="0"
     fit-margin-left="0"
     fit-margin-right="0"
     fit-margin-bottom="0" /><g
     id="g5064"
     inkscape:export-xdpi="90"
     inkscape:export-ydpi="90"
     transform="matrix(1.25,0,0,1.25,11.358291,-48.858342)"><g
       style="fill:#00a99d;fill-opacity:1"
       id="g3567"
       transform="matrix(0.9999875,0,0,0.9999875,-464.98431,83.416412)"
       inkscape:export-xdpi="90"
       inkscape:export-ydpi="90" /><rect
       ry="0"
       rx="0"
       style="opacity:1;fill:#333333;fill-opacity:1;stroke:none;stroke-width:6.79094839;stroke-linecap:round;stroke-linejoin:round;stroke-miterlimit:4;stroke-dasharray:none;stroke-dashoffset:0;stroke-opacity:1"
       id="rect5453"
       width="120"
       height="120"
       x="-9.0866327"
       y="39.086674" /><g
       transform="matrix(0.90173223,0,0,0.90173223,1.3181016,13.422103)"
       id="g5042"><g
         id="g4869"
         transform="matrix(0.82514008,0,0,0.82514008,13.740923,53.76281)"
         style="fill:#ffffff;filter:url(#filter4893)"><path
           inkscape:connector-curvature="0"
           d="M 83.778,81.138 H 79.805 V 30.124 h 3.973 c 0,0 0,51.014 0,51.014 z"
           id="path4871"
           style="fill:#ffffff" /><path
           inkscape:connector-curvature="0"
           d="m 83.778,79.787 v 3.974 H 30.459 v -3.974 z"
           id="path4873"
           style="fill:#ffffff" /><path
           inkscape:connector-curvature="0"
           d="M 51.96,81.298 H 47.987 V 62.068 H 51.96 Z"
           id="path4875"
           style="fill:#ffffff" /><path
           inkscape:connector-curvature="0"
           d="m 80.997,47.844 v 3.973 H 62.562 v -3.973 z"
           id="path4877"
           style="fill:#ffffff" /><path
           inkscape:connector-curvature="0"
           d="m 88.796,49.753 c 0,3.794 -3.075,6.869 -6.869,6.869 -3.794,0 -6.869,-3.075 -6.869,-6.869 0,-3.793 3.076,-6.868 6.869,-6.868 3.794,0 6.869,3.074 6.869,6.868 z"
           id="path4879"
           style="fill:#ffffff" /><path
           inkscape:connector-curvature="0"
           d="m 56.603,81.851 c 0,3.662 -2.968,6.63 -6.63,6.63 -3.662,0 -6.63,-2.968 -6.63,-6.63 0,-3.661 2.968,-6.63 6.63,-6.63 3.662,0 6.63,2.969 6.63,6.63 z"
           id="path4881"
           style="fill:#ffffff" /><path
           inkscape:connector-curvature="0"
           d="m 95.002,8.726 v 18.75 c 0,2.072 -1.679,3.75 -3.75,3.75 h -18.75 c -2.071,0 -3.75,-1.678 -3.75,-3.75 V 8.726 c 0,-2.071 1.679,-3.75 3.75,-3.75 h 18.75 c 2.072,0 3.75,1.679 3.75,3.75 z"
           id="path4883"
           style="fill:#ffffff" /><path
           inkscape:connector-curvature="0"
           d="M 63.127,40.601 V 59.35 c 0,2.072 -1.679,3.75 -3.75,3.75 h -18.75 c -2.071,0 -3.75,-1.678 -3.75,-3.75 V 40.601 c 0,-2.071 1.679,-3.75 3.75,-3.75 h 18.75 c 2.072,0 3.751,1.679 3.75,3.75 z"
           id="path4885"
           style="fill:#ffffff" /><path
           inkscape:connector-curvature="0"
           d="m 31.253,72.477 v 18.748 c 0,2.072 -1.679,3.751 -3.75,3.751 H 8.753 c -2.071,0 -3.75,-1.679 -3.75,-3.751 V 72.476 c 0,-2.072 1.679,-3.75 3.75,-3.75 h 18.75 c 2.071,0 3.749,1.679 3.75,3.751 z"
           id="path4887"
           style="fill:#ffffff" /></g><g
         style="fill:#ececec"
         transform="matrix(0.82514008,0,0,0.82514008,13.740926,53.762808)"
         id="g5952"><path
           style="fill:#ececec"
           id="path5954"
           d="M 83.778,81.138 H 79.805 V 30.124 h 3.973 c 0,0 0,51.014 0,51.014 z"
           inkscape:connector-curvature="0" /><path
           style="fill:#ececec"
           id="path5956"
           d="m 83.778,79.787 v 3.974 H 30.459 v -3.974 z"
           inkscape:connector-curvature="0" /><path
           style="fill:#ececec"
           id="path5958"
           d="M 51.96,81.298 H 47.987 V 62.068 H 51.96 Z"
           inkscape:connector-curvature="0" /><path
           style="fill:#ececec"
           id="path5960"
           d="m 80.997,47.844 v 3.973 H 62.562 v -3.973 z"
           inkscape:connector-curvature="0" /><path
           style="fill:#ececec"
           id="path5962"
           d="m 88.796,49.753 c 0,3.794 -3.075,6.869 -6.869,6.869 -3.794,0 -6.869,-3.075 -6.869,-6.869 0,-3.793 3.076,-6.868 6.869,-6.868 3.794,0 6.869,3.074 6.869,6.868 z"
           inkscape:connector-curvature="0" /><path
           style="fill:#ececec"
           id="path5964"
           d="m 56.603,81.851 c 0,3.662 -2.968,6.63 -6.63,6.63 -3.662,0 -6.63,-2.968 -6.63,-6.63 0,-3.661 2.968,-6.63 6.63,-6.63 3.662,0 6.63,2.969 6.63,6.63 z"
           inkscape:connector-curvature="0" /><path
           style="fill:#ececec"
           id="path5966"
           d="m 95.002,8.726 v 18.75 c 0,2.072 -1.679,3.75 -3.75,3.75 h -18.75 c -2.071,0 -3.75,-1.678 -3.75,-3.75 V 8.726 c 0,-2.071 1.679,-3.75 3.75,-3.75 h 18.75 c 2.072,0 3.75,1.679 3.75,3.75 z"
           inkscape:connector-curvature="0" /><path
           style="fill:#ececec"
           id="path5968"
           d="M 63.127,40.601 V 59.35 c 0,2.072 -1.679,3.75 -3.75,3.75 h -18.75 c -2.071,0 -3.75,-1.678 -3.75,-3.75 V 40.601 c 0,-2.071 1.679,-3.75 3.75,-3.75 h 18.75 c 2.072,0 3.751,1.679 3.75,3.75 z"
           inkscape:connector-curvature="0" /><path
           style="fill:#ececec"
           id="path5970"
           d="m 31.253,72.477 v 18.748 c 0,2.072 -1.679,3.751 -3.75,3.751 H 8.753 c -2.071,0 -3.75,-1.679 -3.75,-3.751 V 72.476 c 0,-2.072 1.679,-3.75 3.75,-3.75 h 18.75 c 2.071,0 3.749,1.679 3.75,3.751 z"
           inkscape:connector-curvature="0" /></g></g></g></svg>
